client/src/assets/images/icon-planning.svg

<svg viewBox="0 0 64.471 60.476" xmlns="http://www.w3.org/2000/svg"><g fill="#808080"><path d="m8.522 32.03a8.523 8.523 0 0 1 -6.029-14.551l14.982-14.979a8.526 8.526 0 0 1 12.058 0 8.526 8.526 0 0 1 0 12.058l-14.981 14.979a8.5 8.5 0 0 1 -6.03 2.493zm14.978-30.53a6.98 6.98 0 0 0 -4.968 2.058l-14.978 14.981a7.027 7.027 0 0 0 9.938 9.937l14.98-14.976a7.026 7.026 0 0 0 0-9.937 6.981 6.981 0 0 0 -4.972-2.063z"/><path d="m3.024 29.007a7.776 7.776 0 0 0 11 0l8.115-8.115-7.539-7.538-6.9 6.9a1.04 1.04 0 0 1 -1.471-1.471l6.9-6.9-1.99-1.989-8.115 8.115a7.776 7.776 0 0 0 0 10.998z"/><path d="m61.583 26.608a2.88 2.88 0 0 1 -2.042-.844l-15.728-15.729a2.889 2.889 0 0 1 0-4.085 2.958 2.958 0 0 1 4.085 0l15.728 15.728a2.887 2.887 0 0 1 -2.043 4.93zm-.983-1.908a1.389 1.389 0 0 0 1.964-1.964l-15.726-15.725a1.422 1.422 0 0 0 -1.964 0 1.389 1.389 0 0 0 0 1.964z"/><path d="m12.348 60.476a3.769 3.769 0 0 1 -2.05-.594l-.059.058-1.053-1.055-.006-.006.054-.054a3.988 3.988 0 0 1 -.032-4.127c.732-1.3 2.376-4.623 1.827-7.371a7.468 7.468 0 0 1 2.086-6.745l31.72-31.72 15.431 15.422-31.72 31.716a7.465 7.465 0 0 1 -6.746 2.09c-2.748-.548-6.071 1.095-7.371 1.827a4.253 4.253 0 0 1 -2.081.559zm-1.576-2.126a2.435 2.435 0 0 0 2.922.26c1.8-1.011 5.275-2.616 8.4-1.99a5.971 5.971 0 0 0 5.39-1.676l30.66-30.66-13.305-13.306-30.66 30.66a5.973 5.973 0 0 0 -1.676 5.39c.625 3.124-.979 6.6-1.99 8.4a2.433 2.433 0 0 0 .259 2.922z"/></g></svg>

<svg xmlns="http://www.w3.org/2000/svg" viewBox="0 0 64.471 60.476"><defs><style>.a{fill:#808080;}</style></defs><title>icon-family-planning</title><path class="a" d="M8.522,32.03A8.523,8.523,0,0,1,2.493,17.479L17.475,2.5a8.526,8.526,0,0,1,12.058,0h0a8.526,8.526,0,0,1,0,12.058L14.552,29.537A8.5,8.5,0,0,1,8.522,32.03ZM23.5,1.5a6.98,6.98,0,0,0-4.968,2.058L3.554,18.539a7.027,7.027,0,0,0,9.938,9.937L28.472,13.5a7.026,7.026,0,0,0,0-9.937h0A6.981,6.981,0,0,0,23.5,1.5Z"/><path class="a" d="M3.024,29.007a7.776,7.776,0,0,0,11,0l8.115-8.115L14.6,13.354l-6.9,6.9a1.04,1.04,0,0,1-1.471-1.471l6.9-6.9L11.139,9.894,3.024,18.009A7.776,7.776,0,0,0,3.024,29.007Z"/><path class="a" d="M61.583,26.608a2.88,2.88,0,0,1-2.042-.844h0L43.813,10.035a2.889,2.889,0,0,1,0-4.085,2.958,2.958,0,0,1,4.085,0L63.626,21.678a2.887,2.887,0,0,1-2.043,4.93ZM60.6,24.7a1.389,1.389,0,0,0,1.964-1.964L46.838,7.011a1.422,1.422,0,0,0-1.964,0,1.389,1.389,0,0,0,0,1.964L60.6,24.7Z"/><path class="a" d="M12.348,60.476a3.769,3.769,0,0,1-2.05-.594l-.059.058,0,0,0,0L9.186,58.885l0,0-.006-.006.054-.054a3.988,3.988,0,0,1-.032-4.127c.732-1.3,2.376-4.623,1.827-7.371a7.468,7.468,0,0,1,2.086-6.745l31.72-31.72L60.266,24.284,28.546,56A7.465,7.465,0,0,1,21.8,58.09c-2.748-.548-6.071,1.095-7.371,1.827A4.253,4.253,0,0,1,12.348,60.476ZM10.772,58.35a2.435,2.435,0,0,0,2.922.26c1.8-1.011,5.275-2.616,8.4-1.99a5.971,5.971,0,0,0,5.39-1.676l30.66-30.66L44.839,10.978l-30.66,30.66a5.973,5.973,0,0,0-1.676,5.39c.625,3.124-.979,6.6-1.99,8.4A2.433,2.433,0,0,0,10.772,58.35Z"/></svg>
